X: 579
T: Fred Finn's
B: good tune book
B: tunes
M:4/4
R: reel
Q: 1/4=100
K:Dmajor
V:1 
|:A3F ABde|fdec d2cd|BEEF G2GB|AFF2 dFAF|
 A2AF ABde|fdec d2cd|BAGB ABde|1 faeg fddB:|2 faeg fdde||
 |:fdad bdaf|dfaf gfed|fbba b2ba|fbba fede|
 fdad bdaf|dfaf gfed|BAGB ABde|1 faeg fdde:|2 faeg fddB||
% abcbook-tune_id 63dce3aa8464123338750334
% abcbook-tune_composer_id 
% abcbook-link-0 https://www.youtube.com/watch?v=dFTZtsK6-30
% abcbook-link-title-0 Fred Finn&#39;s
% abcbook-boost 0
% abcbook-difficulty 0
% abcbook-tags good tune book
% abcbook-tablature 
% abcbook-transpose 
% abcbook-tuning 
% abcbook-lastupdated 1675428955373
% abcbook-soundfonts 
% abcbook-repeats 1


